X: 37808
T: Sonny Brogan's
R: jig
M: 6/8
K: Adorian
CA,B, ~C3|DCD~E3|~A,3CDE|DCA, A,G,E|
CA,B, ~C3|DCD~E3|GAG GED|CA,G,~A,3:|
|:EAA ABA|GEF~G3|EAA ABA|GED CA,G,|
EAA EAA|GEF~G3|GAG GED|CA,G,~A,3:|

